X: 6
T:Ffarwel Ffranses
T:Farewell Frances
M:3/4
L:1/8
Q:200
C:Trad
S:51 Welsh Airs
R:Waltz
A:Wales
N:There really is an odd number of bars in the original.
H:From a facsimile c.1840: A Choice Collection of Fifty-One Welsh Airs
H:adapted for The Harp, Piano-Forte, Harpsichord,
H:Violin, or Flute by Edward Jones
H:"Harper to His Late Majesty King George IV, when
H:Prince of Wales".
Z:brian_martin12345@yahoo.com
K:G
"Affetuoso"
Bc|d2d>ed>e|c2c>dB>c|A2AcBA|dBGABc|d2d>ed>e|c2c>dB>c|A2ABcd|(e3d)ef|
g2d2e2|d2B2G2|G2BAGF|E>AG2{FEG}F2|G6:||!
z2|G2g2f2|e2f2g2|a2gfef|(d4e2)|A2B2c2|E2{G}F2G2|FAGFEF|D4GA|B2B2c2|
B>cA>BG2|(c3B)cd|(e3d)ef|g2(de/f/)e2|d2B2G2|G2G>AF>G|E>c B2A2|G4:||

